src/access/icon/food.svg

<svg xmlns="http://www.w3.org/2000/svg" width="33" height="33" fill="none" viewBox="0 0 33 33">
  <g class="food">
    <g class="fill">
      <path fill="#fff" d="M21.044 33H8.531a.5.5 0 01-.497-.443L5.445 9.902a.501.501 0 01.497-.557h17.691a.5.5 0 01.497.557l-2.589 22.654a.5.5 0 01-.497.444zM8.977 32h11.621l2.475-21.654H6.503L8.976 32z" />
      <path fill="#fff" d="M23.07 15.275H6.581a.5.5 0 010-1h16.49a.5.5 0 010 1z"/>
      <path fill="#fff" d="M14.121 22.354h-3.09a.5.5 0 01-.5-.5v-3.09a.5.5 0 01.5-.5h3.09a.5.5 0 01.5.5v3.09a.5.5 0 01-.5.5zm-2.59-1h2.09v-2.09h-2.09v2.09z"/>
      <path fill="#fff" d="M17.726 28.635a.493.493 0 01-.26-.073l-2.64-1.606a.5.5 0 01-.166-.687l1.606-2.639a.499.499 0 01.687-.167l2.639 1.606a.5.5 0 01.167.687l-1.606 2.64a.499.499 0 01-.427.24zm-1.951-2.274l1.784 1.086 1.086-1.784-1.784-1.086-1.086 1.784z" class="Vector_4"/>
      <path fill="#fff" d="M23.66 15.9c-.197 0-.393-.01-.586-.027a.501.501 0 01-.45-.545c.025-.274.26-.464.544-.45a5.223 5.223 0 005.71-5.195 5.224 5.224 0 00-5.218-5.219 5.223 5.223 0 00-5.217 5.218.5.5 0 01-1 0 6.224 6.224 0 016.217-6.218 6.225 6.225 0 016.218 6.218A6.226 6.226 0 0123.66 15.9z" class="Vector_5"/>
      <path fill="#fff" d="M11.03 10.183a.5.5 0 01-.492-.415L9.027 1H3.623a.5.5 0 010-1h5.825a.5.5 0 01.493.415l1.583 9.183a.5.5 0 01-.494.585z"/>
      <path fill="#fff" d="M23.633 10.346a.5.5 0 01-.5-.5v-5.88a.5.5 0 011 0v5.88a.5.5 0 01-.5.5z"/>
      <path fill="#fff" d="M27.687 14.21a.502.502 0 01-.354-.146L19.28 6.009a.5.5 0 01.707-.707l8.054 8.055a.5.5 0 01-.354.853z"/>
      <path fill="#fff" d="M23.633 10.346a.5.5 0 01-.354-.853l4.078-4.078a.5.5 0 01.707.707L23.986 10.2a.498.498 0 01-.353.146z"/>
      <path fill="#fff" d="M29.377 10.183h-5.744a.5.5 0 010-1h5.744a.5.5 0 010 1z"/>
    </g>
  </g>
</svg>

<svg width="33" height="33" viewBox="0 0 33 33" fill="none" xmlns="http://www.w3.org/2000/svg">
<path d="M21.044 33H8.53105C8.27705 33 8.06305 32.81 8.03405 32.557L5.44505 9.902C5.42905 9.76 5.47405 9.619 5.56905 9.512C5.66405 9.405 5.79905 9.345 5.94205 9.345H23.633C23.776 9.345 23.911 9.406 24.006 9.512C24.101 9.618 24.146 9.76 24.13 9.902L21.541 32.556C21.512 32.81 21.298 33 21.044 33ZM8.97705 32H20.598L23.073 10.346H6.50205L8.97705 32Z" fill="white"/>
<path d="M23.07 15.275H6.58105C6.30505 15.275 6.08105 15.051 6.08105 14.775C6.08105 14.499 6.30505 14.275 6.58105 14.275H23.07C23.346 14.275 23.57 14.499 23.57 14.775C23.57 15.051 23.346 15.275 23.07 15.275Z" fill="white"/>
<path d="M14.121 22.354H11.031C10.755 22.354 10.531 22.13 10.531 21.854V18.765C10.531 18.489 10.755 18.265 11.031 18.265H14.121C14.397 18.265 14.621 18.489 14.621 18.765V21.854C14.621 22.131 14.397 22.354 14.121 22.354ZM11.531 21.354H13.621V19.265H11.531V21.354Z" fill="white"/>
<path d="M17.726 28.635C17.637 28.635 17.547 28.612 17.466 28.562L14.827 26.956C14.591 26.812 14.516 26.505 14.66 26.269L16.266 23.63C16.41 23.393 16.717 23.319 16.953 23.463L19.592 25.069C19.828 25.213 19.903 25.52 19.759 25.756L18.153 28.395C18.059 28.55 17.894 28.635 17.726 28.635ZM15.775 26.361L17.559 27.447L18.645 25.663L16.861 24.577L15.775 26.361Z" fill="white"/>
<path d="M23.66 15.899C23.463 15.899 23.267 15.89 23.074 15.873C22.8 15.847 22.597 15.603 22.623 15.328C22.649 15.054 22.883 14.864 23.168 14.877C23.33 14.893 23.494 14.899 23.66 14.899C26.537 14.899 28.878 12.559 28.878 9.682C28.878 6.805 26.537 4.464 23.66 4.464C20.783 4.464 18.443 6.805 18.443 9.682C18.443 9.958 18.219 10.182 17.943 10.182C17.667 10.182 17.443 9.958 17.443 9.682C17.443 6.253 20.232 3.464 23.66 3.464C27.089 3.464 29.878 6.253 29.878 9.682C29.877 13.11 27.088 15.899 23.66 15.899Z" fill="white"/>
<path d="M11.03 10.183C10.792 10.183 10.58 10.011 10.538 9.768L9.02705 1H3.62305C3.34705 1 3.12305 0.776 3.12305 0.5C3.12305 0.224 3.34605 0 3.62305 0H9.44805C9.69105 0 9.89905 0.175 9.94105 0.415L11.524 9.598C11.571 9.87 11.388 10.129 11.116 10.176C11.087 10.181 11.058 10.183 11.03 10.183Z" fill="white"/>
<path d="M23.633 10.346C23.357 10.346 23.133 10.122 23.133 9.846V3.965C23.133 3.689 23.357 3.465 23.633 3.465C23.909 3.465 24.133 3.689 24.133 3.965V9.846C24.133 10.122 23.91 10.346 23.633 10.346Z" fill="white"/>
<path d="M27.687 14.21C27.559 14.21 27.431 14.161 27.333 14.064L19.28 6.009C19.085 5.814 19.085 5.497 19.28 5.302C19.475 5.107 19.792 5.107 19.987 5.302L28.041 13.357C28.236 13.552 28.236 13.869 28.041 14.064C27.943 14.161 27.815 14.21 27.687 14.21Z" fill="white"/>
<path d="M23.633 10.346C23.505 10.346 23.377 10.297 23.279 10.2C23.084 10.005 23.084 9.688 23.279 9.493L27.357 5.415C27.552 5.22 27.869 5.22 28.064 5.415C28.259 5.61 28.259 5.927 28.064 6.122L23.986 10.2C23.889 10.297 23.761 10.346 23.633 10.346Z" fill="white"/>
<path d="M29.377 10.183H23.633C23.357 10.183 23.133 9.959 23.133 9.683C23.133 9.407 23.357 9.183 23.633 9.183H29.377C29.653 9.183 29.877 9.407 29.877 9.683C29.877 9.959 29.654 10.183 29.377 10.183Z" fill="white"/>
</svg>
